Adwaita++/actions/symbolic/view-list-images-symbolic.svg

<svg xmlns="http://www.w3.org/2000/svg" width="16" height="16" version="1.1">
 <path style="fill:#474747" d="M 5,2 4,3 H 3 C 1,3 1,5 1,5 V 12 C 1,14 3,14 3,14 H 13 C 15,14 15,12 15,12 V 5 C 15,3 13,3 13,3 H 12 L 11,2 Z M 8,5 C 9.66,5 11,6.343 11,8 11,9.657 9.66,11 8,11 6.34,11 5,9.657 5,8 5,6.343 6.34,5 8,5 Z"/>
</svg>

<svg height="16" width="16" xmlns="http://www.w3.org/2000/svg">
  <path d="m5 2-1 1h-1c-2 0-2 2-2 2v7c0 2 2 2 2 2h10c2 0 2-2 2-2v-7c0-2-2-2-2-2h-1l-1-1zm3 3c1.66 0 3 1.343 3 3s-1.34 3-3 3-3-1.343-3-3 1.34-3 3-3z" fill="#474747"/>
</svg>
